svgs/1F936-1F3FC.svg

<svg xmlns="http://www.w3.org/2000/svg" xmlns:xlink="http://www.w3.org/1999/xlink" preserveAspectRatio="none" viewBox="0 0 72 72"><defs><filter id="v" width="140%" height="140%" x="-20%" y="-20%" color-interpolation-filters="sRGB"><feColorMatrix in="SourceGraphic" result="result1" values="1 0 0 0 0 0 1 0 0 0 0 0 1 0 0 0 0 0 0.8 0"/></filter><path id="a" fill="#C48E6A" d="M106.9 66.05h-3.6v20.3q4.75 0 7.85-2.4 3.6-2.8 3.6-8.05 0-5.3-3.9-8.1l-3.95-1.75z"/><path id="b" fill="#C48E6A" d="M24.7 66.05h-3.65l-3.9 1.75q-3.95 2.8-3.95 8.1 0 5.25 3.6 8.05 3.1 2.4 7.9 2.4v-20.3z"/><path id="c" fill="#E1F5FE" d="M106.6 73.45q0-28.7-8.9-42.6Q87.55 14.9 64 14.9q-23.55 0-33.95 16.1Q21 45.15 21 73.8q0 24 15.45 37.5 12.4 10.85 27.55 10.85 15 0 27.3-11 15.3-13.7 15.3-37.7z"/><path id="d" fill="#E1F5FE" d="M40.15 72.35q-1.7 2-1.7 4.85 0 2.9 1.7 4.9 1.65 2 4.05 2 2.35 0 4.05-2 1.65-2.05 1.65-4.9 0-2.85-1.65-4.85-1.7-2.05-4.05-2.05-2.4 0-4.05 2.05z"/><path id="e" fill="#E1F5FE" d="M87.85 72.35q-1.7-2.05-4.05-2.05-2.4 0-4.05 2.05-1.7 2-1.7 4.85 0 2.85 1.7 4.9 1.65 2 4.05 2 2.35 0 4.05-2 1.65-2 1.65-4.9 0-2.85-1.65-4.85z"/><path id="f" fill="#E1F5FE" d="M63.95 108.75q4.9 0 9-2.15 3.2-1.7 4.5-3.7.7-1.05.35-1.7-.35-.65-1.45-.65H51.6q-1.1 0-1.45.65-.35.65.35 1.7 1.3 2 4.5 3.7 4.1 2.15 8.95 2.15z"/><path id="g" fill="#E1F5FE" d="M58 90q-.65-.15-.9.3-.3.4-.05.9.7 1.15 2.4 2.2 2.2 1.35 4.55 1.35 2.35 0 4.5-1.35 1.7-1.05 2.4-2.2.25-.5 0-.9-.3-.45-.95-.3-3.15.9-5.95.9-2.85 0-6-.9z"/><path id="h" fill="#E0BB95" d="M106.6 73.45q0-28.7-8.9-42.6Q87.55 14.9 64 14.9q-23.55 0-33.95 16.1Q21 45.15 21 73.8q0 24 15.45 37.5 12.4 10.85 27.55 10.85 15 0 27.3-11 15.3-13.7 15.3-37.7z"/><path id="i" fill="#444" d="M40.15 72.35q-1.7 2-1.7 4.85 0 2.9 1.7 4.9 1.65 2 4.05 2 2.35 0 4.05-2 1.65-2.05 1.65-4.9 0-2.85-1.65-4.85-1.7-2.05-4.05-2.05-2.4 0-4.05 2.05z"/><path id="j" fill="#444" d="M87.85 72.35q-1.7-2.05-4.05-2.05-2.4 0-4.05 2.05-1.7 2-1.7 4.85 0 2.85 1.7 4.9 1.65 2 4.05 2 2.35 0 4.05-2 1.65-2 1.65-4.9 0-2.85-1.65-4.85z"/><path id="k" fill="#513F35" d="M63.95 108.75q4.9 0 9-2.15 3.2-1.7 4.5-3.7.7-1.05.35-1.7-.35-.65-1.45-.65H51.6q-1.1 0-1.45.65-.35.65.35 1.7 1.3 2 4.5 3.7 4.1 2.15 8.95 2.15z"/><path id="l" fill="#C48E6A" d="M58 90q-.65-.15-.9.3-.3.4-.05.9.7 1.15 2.4 2.2 2.2 1.35 4.55 1.35 2.35 0 4.5-1.35 1.7-1.05 2.4-2.2.25-.5 0-.9-.3-.45-.95-.3-3.15.9-5.95.9-2.85 0-6-.9z"/><path id="m" fill="#C48E6A" fill-opacity=".498" d="M31 2.4q-.35-.55-.95-.7-14.45-3.45-28.9 0-.6.15-.9.7-.35.5-.2 1.15Q.4 4.7 1.5 4.7l.35-.05q13.75-3.3 27.5 0 .6.15 1.15-.15.5-.35.65-.95.15-.65-.15-1.15z"/><path id="n" fill="#C48E6A" fill-opacity=".498" d="M32.5 4.8l.35.05q1.1 0 1.45-1.15.15-.6-.15-1.1-.35-.55-.95-.7-16-3.9-32.05 0-.6.15-.9.7-.35.5-.2 1.1.15.6.7.95.5.3 1.1.15 15.3-3.65 30.65 0z"/><path id="o" fill="#C48E6A" fill-opacity=".498" d="M12.75 2.85q.55-.3.75-.9.15-.6-.15-1.15-.25-.55-.85-.7-.65-.2-1.15.1Q8.9 1.55 6.4 4.15 1.45 9.35.05 16.5q-.1.6.25 1.1.3.55.95.65l.3.05q1.2 0 1.45-1.25 1.25-6.25 5.6-10.8 2.15-2.3 4.15-3.4z"/><path id="p" fill="#C48E6A" fill-opacity=".498" d="M11.8 2.2q.3-.55.1-1.15-.15-.6-.7-.9-.55-.3-1.15-.1-.6.15-.9.7-.55 1.1-1.8 2.1-2.5 2.1-5.85 2.1-.65 0-1.05.45Q0 5.8 0 6.45q0 .6.45 1.05.4.45 1.05.45 4.45 0 7.75-2.8 1.7-1.4 2.55-2.95z"/><path id="q" fill="#C48E6A" fill-opacity=".498" d="M42.7 52.9q1.1.6 2.35 1.9 2.45 2.55 3.15 6.1.05.3.3.5.2.2.55.2l.1-.05q.4-.05.6-.35.15-.3.1-.6-.8-4.05-3.6-6.95-1.4-1.5-2.75-2.25-.3-.15-.65-.05-.3.1-.5.4-.15.3-.05.65.1.35.4.5z"/><path id="r" fill="#C48E6A" fill-opacity=".498" d="M10.5 7.95q.65 0 1.05-.45.45-.45.45-1.05 0-.65-.45-1.05-.4-.45-1.05-.45-3.35 0-5.8-2Q3.45 1.9 2.8.75 2.5.2 1.9.05q-.6-.2-1.1.1-.55.3-.75.9-.15.6.1 1.15.9 1.55 2.55 2.95 3.3 2.8 7.8 2.8z"/><path id="s" fill="#757575" d="M64 79.45q-4.9-.05-8.4 2.95l.05 2.35q1.4-1.4 3.6-2.3 2.4-1 4.75-1v-2z"/><path id="t" fill="#757575" d="M72.35 82.4q-3.5-3-8.35-2.95v2q2.3 0 4.7 1 2.2.9 3.6 2.3l.05-2.35z"/><path id="u" fill="#FAFAFA" fill-opacity=".498" d="M12 0Q7 0 3.5 1.85T0 6.35Q0 9 3.5 10.9 7 12.75 12 12.75q4.95 0 8.5-1.85Q24 9 24 6.35q0-2.6-3.5-4.5Q16.95 0 12 0z"/><path id="w" fill="#FFF" d="M23.85 7.35q.15-.5.15-1 0-2.6-3.5-4.5Q16.95 0 12 0 7 0 3.5 1.85T0 6.35q0 .5.15 1 .7-2.35 4-3.9Q7.55 1.9 12 1.9q4.45 0 7.85 1.55 3.3 1.55 4 3.9z"/><path id="x" fill="#FFF" d="M23.85 7.35q.15-.5.15-1 0-2.65-3.5-4.5T12 0Q7.05 0 3.55 1.85 0 3.75 0 6.35q0 .5.15 1 .7-2.35 4-3.9Q7.55 1.9 12 1.9q4.5 0 7.85 1.55 3.35 1.55 4 3.9z"/><path id="y" fill="#FAFAFA" fill-opacity=".498" d="M12 0Q7.05 0 3.55 1.85 0 3.75 0 6.35 0 9 3.55 10.9q3.5 1.85 8.45 1.85 5 0 8.5-1.85Q24 9 24 6.35t-3.5-4.5Q17 0 12 0z"/><path id="z" fill="#757575" d="M31.6 84.5l.35-1.95q-2.15-.4-4.6-2.6-4.9-4.4-6.4-13.25l-1.95.35q1.65 9.75 7.15 14.55 2.75 2.4 5.45 2.9z"/><path id="A" fill="#757575" d="M96.3 84.5q2.75-.5 5.5-2.9 5.5-4.8 7.15-14.55L107 66.7q-1.45 8.85-6.25 13.2-2.45 2.2-4.8 2.65l.35 1.95z"/><path id="B" fill="#BF360C" d="M64.05 12.55h-.95q-24.7 0-38.7 15.15-6.55 7.05-8.75 15.95-2.25 9.2.6 18.85.25 0 .3-.1 4.6-3.35 11.45-10.25 7.9-8.15 11.9-12.1 14.8-14.65 24.15-16.2v-11.3z"/><path id="C" fill="#EEE" d="M55.85 19.5q-5.5-3.85-9-2.55-3.45 1.3-4.6 8.15-1.2 7.2-3 8.35-2.4 1.55-9.55.9-6.6-.6-8.7 1.8-1.8 2.05-.95 6.9 1.05 5.75.45 7.75-.6 1.9-5.7 5.1-4.65 2.9-4.7 6.65 0 2.5 2.85 5.15 3.2 3.05 3.85 5.2l.45 2.05q.25 1.25 1.55 1.25 1.3-.05 1.5-1.3 1.85-9.6 7.15-16.9 5.9-8.25 14.4-10.95Q45.25 46 55.5 43.9q8.55-2.75 8.55-8.55v-11.5q-2 0-8.2-4.35z"/><path id="D" fill="#BF360C" d="M50.2 23.1q2.35 2.35 6.95 7.2 4 4.05 6.7 6.05l.2.05q1.65-5.65.35-11.05-1.3-5.2-5.1-9.35-8.25-8.95-22.7-8.95h-.55v6.35q5.45.95 14.15 9.7z"/><path id="E" fill="#EEE" d="M45.7 9.55q-1.95-.75-5.05 1.4-3.45 2.45-4.6 2.45v6.5q0 3.25 4.8 4.8 2.65.85 7.65 1.75 4.8 1.55 8.15 6.2 3 4.1 4 9.5.15.7.85.7t.9-.7l.2-1.15q.35-1.2 2.2-2.9 1.6-1.5 1.6-2.9-.05-2.1-2.65-3.75-2.9-1.8-3.2-2.85-.35-1.2.25-4.4.45-2.7-.55-3.85-1.2-1.35-4.9-1.05-4 .4-5.35-.5-1.05-.65-1.7-4.7-.65-3.85-2.6-4.55z"/></defs><use transform="rotate(.078) scale(.56247)" xlink:href="#a"/><use transform="rotate(.078) scale(.56247)" xlink:href="#b"/><use transform="rotate(.078) scale(.56247)" xlink:href="#c"/><use transform="rotate(.078) scale(.56247)" xlink:href="#d"/><use transform="rotate(.078) scale(.56247)" xlink:href="#e"/><use transform="rotate(.078) scale(.56247)" xlink:href="#f"/><use transform="rotate(.078) scale(.56247)" xlink:href="#g"/><use transform="scale(.56248)" xlink:href="#h"/><use transform="rotate(.078) scale(.56247)" xlink:href="#i"/><use transform="rotate(.078) scale(.56247)" xlink:href="#j"/><use transform="rotate(.078) scale(.56247)" xlink:href="#k"/><use transform="scale(.56248)" xlink:href="#l"/><use transform="translate(27.1 28.15) scale(.5625)" xlink:href="#m"/><use transform="translate(26.2 33.2) scale(.5625)" xlink:href="#n"/><use transform="matrix(.56247 0 0 .56247 21.65 51.3)" xlink:href="#o"/><use transform="matrix(.56247 0 0 .56247 23.1 46.35)" xlink:href="#p"/><use xlink:href="#q"/><use transform="matrix(.56247 0 0 .56247 41.75 46.35)" xlink:href="#r"/><use transform="scale(.5625)" xlink:href="#s"/><use transform="scale(.5625)" xlink:href="#t"/><use transform="translate(17.8 43.9) scale(.5625)" xlink:href="#u"/><use filter="url(#v)" transform="translate(17.8 42.85) scale(.5625)" xlink:href="#w"/><use filter="url(#v)" transform="translate(40.65 42.85) scale(.5625)" xlink:href="#x"/><use transform="translate(40.65 43.9) scale(.5625)" xlink:href="#y"/><use transform="scale(.5625)" xlink:href="#z"/><use transform="scale(.5625)" xlink:href="#A"/><use transform="scale(.5625)" xlink:href="#B"/><use transform="scale(.5625)" xlink:href="#C"/><use xlink:href="#D"/><use xlink:href="#E"/></svg>

<svg xmlns="http://www.w3.org/2000/svg" version="1.1" xmlns:xlink="http://www.w3.org/1999/xlink" preserveAspectRatio="none" x="0px" y="0px" width="72px" height="72px" viewBox="0 0 72 72">
<defs>
<filter id="Filter_1" x="-20%" y="-20%" width="140%" height="140%" color-interpolation-filters="sRGB">
<feColorMatrix in="SourceGraphic" type="matrix" values="1 0 0 0 0 0 1 0 0 0 0 0 1 0 0 0 0 0 0.8 0" result="result1"/>
</filter>

<g id="Layer0_0_MEMBER_0_MEMBER_0_MEMBER_0_FILL">
<path fill="#C48E6A" stroke="none" d="
M 106.9 66.05
L 103.3 66.05 103.3 86.35
Q 108.05 86.35 111.15 83.95 114.75 81.15 114.75 75.9 114.75 70.6 110.85 67.8
L 106.9 66.05 Z"/>
</g>

<g id="Layer0_0_MEMBER_0_MEMBER_1_MEMBER_0_FILL">
<path fill="#C48E6A" stroke="none" d="
M 24.7 66.05
L 21.05 66.05 17.15 67.8
Q 13.2 70.6 13.2 75.9 13.2 81.15 16.8 83.95 19.9 86.35 24.7 86.35
L 24.7 66.05 Z"/>
</g>

<g id="Layer0_0_MEMBER_1_MEMBER_0_FILL">
<path fill="#E1F5FE" stroke="none" d="
M 106.6 73.45
Q 106.6 44.75 97.7 30.85 87.55 14.9 64 14.9 40.45 14.9 30.05 31 21 45.15 21 73.8 21 97.8 36.45 111.3 48.85 122.15 64 122.15 79 122.15 91.3 111.15 106.6 97.45 106.6 73.45 Z"/>
</g>

<g id="Layer0_0_MEMBER_2_MEMBER_0_FILL">
<path fill="#E1F5FE" stroke="none" d="
M 40.15 72.35
Q 38.45 74.35 38.45 77.2 38.45 80.1 40.15 82.1 41.8 84.1 44.2 84.1 46.55 84.1 48.25 82.1 49.9 80.05 49.9 77.2 49.9 74.35 48.25 72.35 46.55 70.3 44.2 70.3 41.8 70.3 40.15 72.35 Z"/>
</g>

<g id="Layer0_0_MEMBER_3_MEMBER_0_FILL">
<path fill="#E1F5FE" stroke="none" d="
M 87.85 72.35
Q 86.15 70.3 83.8 70.3 81.4 70.3 79.75 72.35 78.05 74.35 78.05 77.2 78.05 80.05 79.75 82.1 81.4 84.1 83.8 84.1 86.15 84.1 87.85 82.1 89.5 80.1 89.5 77.2 89.5 74.35 87.85 72.35 Z"/>
</g>

<g id="Layer0_0_MEMBER_4_MEMBER_0_FILL">
<path fill="#E1F5FE" stroke="none" d="
M 63.95 108.75
Q 68.85 108.75 72.95 106.6 76.15 104.9 77.45 102.9 78.15 101.85 77.8 101.2 77.45 100.55 76.35 100.55
L 51.6 100.55
Q 50.5 100.55 50.15 101.2 49.8 101.85 50.5 102.9 51.8 104.9 55 106.6 59.1 108.75 63.95 108.75 Z"/>
</g>

<g id="Layer0_0_MEMBER_5_MEMBER_0_FILL">
<path fill="#E1F5FE" stroke="none" d="
M 58 90
Q 57.35 89.85 57.1 90.3 56.8 90.7 57.05 91.2 57.75 92.35 59.45 93.4 61.65 94.75 64 94.75 66.35 94.75 68.5 93.4 70.2 92.35 70.9 91.2 71.15 90.7 70.9 90.3 70.6 89.85 69.95 90 66.8 90.9 64 90.9 61.15 90.9 58 90 Z"/>
</g>

<g id="Layer0_0_MEMBER_6_MEMBER_0_FILL">
<path fill="#E0BB95" stroke="none" d="
M 106.6 73.45
Q 106.6 44.75 97.7 30.85 87.55 14.9 64 14.9 40.45 14.9 30.05 31 21 45.15 21 73.8 21 97.8 36.45 111.3 48.85 122.15 64 122.15 79 122.15 91.3 111.15 106.6 97.45 106.6 73.45 Z"/>
</g>

<g id="Layer0_0_MEMBER_7_MEMBER_0_FILL">
<path fill="#444444" stroke="none" d="
M 40.15 72.35
Q 38.45 74.35 38.45 77.2 38.45 80.1 40.15 82.1 41.8 84.1 44.2 84.1 46.55 84.1 48.25 82.1 49.9 80.05 49.9 77.2 49.9 74.35 48.25 72.35 46.55 70.3 44.2 70.3 41.8 70.3 40.15 72.35 Z"/>
</g>

<g id="Layer0_0_MEMBER_8_MEMBER_0_FILL">
<path fill="#444444" stroke="none" d="
M 87.85 72.35
Q 86.15 70.3 83.8 70.3 81.4 70.3 79.75 72.35 78.05 74.35 78.05 77.2 78.05 80.05 79.75 82.1 81.4 84.1 83.8 84.1 86.15 84.1 87.85 82.1 89.5 80.1 89.5 77.2 89.5 74.35 87.85 72.35 Z"/>
</g>

<g id="Layer0_0_MEMBER_9_MEMBER_0_FILL">
<path fill="#513F35" stroke="none" d="
M 63.95 108.75
Q 68.85 108.75 72.95 106.6 76.15 104.9 77.45 102.9 78.15 101.85 77.8 101.2 77.45 100.55 76.35 100.55
L 51.6 100.55
Q 50.5 100.55 50.15 101.2 49.8 101.85 50.5 102.9 51.8 104.9 55 106.6 59.1 108.75 63.95 108.75 Z"/>
</g>

<g id="Layer0_0_MEMBER_10_MEMBER_0_FILL">
<path fill="#E49500" stroke="none" d="
M 58 90
Q 57.35 89.85 57.1 90.3 56.8 90.7 57.05 91.2 57.75 92.35 59.45 93.4 61.65 94.75 64 94.75 66.35 94.75 68.5 93.4 70.2 92.35 70.9 91.2 71.15 90.7 70.9 90.3 70.6 89.85 69.95 90 66.8 90.9 64 90.9 61.15 90.9 58 90 Z"/>
</g>

<g id="Layer0_0_MEMBER_11_FILL">
<path fill="#C48E6A" fill-opacity="0.4980392156862745" stroke="none" d="
M 31 2.4
Q 30.65 1.85 30.05 1.7 15.6 -1.75 1.15 1.7 0.55 1.85 0.25 2.4 -0.1 2.9 0.05 3.55 0.4 4.7 1.5 4.7
L 1.85 4.65
Q 15.6 1.35 29.35 4.65 29.95 4.8 30.5 4.5 31 4.15 31.15 3.55 31.3 2.9 31 2.4 Z"/>
</g>

<g id="Layer0_0_MEMBER_12_FILL">
<path fill="#C48E6A" fill-opacity="0.4980392156862745" stroke="none" d="
M 32.5 4.8
L 32.85 4.85
Q 33.95 4.85 34.3 3.7 34.45 3.1 34.15 2.6 33.8 2.05 33.2 1.9 17.2 -2 1.15 1.9 0.55 2.05 0.25 2.6 -0.1 3.1 0.05 3.7 0.2 4.3 0.75 4.65 1.25 4.95 1.85 4.8 17.15 1.15 32.5 4.8 Z"/>
</g>

<g id="Layer0_0_MEMBER_13_MEMBER_0_FILL">
<path fill="#C48E6A" fill-opacity="0.4980392156862745" stroke="none" d="
M 12.5 0.1
Q 11.85 -0.1 11.35 0.2 8.9 1.55 6.4 4.15 1.45 9.35 0.05 16.5 -0.05 17.1 0.3 17.6 0.6 18.15 1.25 18.25
L 1.55 18.3
Q 2.75 18.3 3 17.05 4.25 10.8 8.6 6.25 10.75 3.95 12.75 2.85 13.3 2.55 13.5 1.95 13.65 1.35 13.35 0.8 13.1 0.25 12.5 0.1 Z"/>
</g>

<g id="Layer0_0_MEMBER_13_MEMBER_1_FILL">
<path fill="#C48E6A" fill-opacity="0.4980392156862745" stroke="none" d="
M 11.9 1.05
Q 11.75 0.45 11.2 0.15 10.65 -0.15 10.05 0.05 9.45 0.2 9.15 0.75 8.6 1.85 7.35 2.85 4.85 4.95 1.5 4.95 0.85 4.95 0.45 5.4 0 5.8 0 6.45 0 7.05 0.45 7.5 0.85 7.95 1.5 7.95 5.95 7.95 9.25 5.15 10.95 3.75 11.8 2.2 12.1 1.65 11.9 1.05 Z"/>
</g>

<g id="Layer0_0_MEMBER_13_MEMBER_2_MEMBER_0_FILL">
<path fill="#C48E6A" fill-opacity="0.4980392156862745" stroke="none" d="
M 43.5 51.4
Q 43.2 51.25 42.85 51.35 42.55 51.45 42.35 51.75 42.2 52.05 42.3 52.4 42.4 52.75 42.7 52.9 43.8 53.5 45.05 54.8 47.5 57.35 48.2 60.9 48.25 61.2 48.5 61.4 48.7 61.6 49.05 61.6
L 49.15 61.55
Q 49.55 61.5 49.75 61.2 49.9 60.9 49.85 60.6 49.05 56.55 46.25 53.65 44.85 52.15 43.5 51.4 Z"/>
</g>

<g id="Layer0_0_MEMBER_13_MEMBER_2_MEMBER_1_FILL">
<path fill="#C48E6A" fill-opacity="0.4980392156862745" stroke="none" d="
M 10.5 7.95
Q 11.15 7.95 11.55 7.5 12 7.05 12 6.45 12 5.8 11.55 5.4 11.15 4.95 10.5 4.95 7.15 4.95 4.7 2.95 3.45 1.9 2.8 0.75 2.5 0.2 1.9 0.05 1.3 -0.15 0.8 0.15 0.25 0.45 0.05 1.05 -0.1 1.65 0.15 2.2 1.05 3.75 2.7 5.15 6 7.95 10.5 7.95 Z"/>
</g>

<g id="Layer0_0_MEMBER_14_FILL">
<path fill="#757575" stroke="none" d="
M 64 79.45
Q 59.1 79.4 55.6 82.4
L 55.65 84.75
Q 57.05 83.35 59.25 82.45 61.65 81.45 64 81.45
L 64 79.45 Z"/>
</g>

<g id="Layer0_0_MEMBER_15_FILL">
<path fill="#757575" stroke="none" d="
M 72.35 82.4
Q 68.85 79.4 64 79.45
L 64 81.45
Q 66.3 81.45 68.7 82.45 70.9 83.35 72.3 84.75
L 72.35 82.4 Z"/>
</g>

<g id="Layer0_0_MEMBER_16_MEMBER_0_MEMBER_0_FILL">
<path fill="#FAFAFA" fill-opacity="0.4980392156862745" stroke="none" d="
M 12 0
Q 7 0 3.5 1.85 0 3.7 0 6.35 0 9 3.5 10.9 7 12.75 12 12.75 16.95 12.75 20.5 10.9 24 9 24 6.35 24 3.75 20.5 1.85 16.95 0 12 0 Z"/>
</g>

<g id="An_1F936_SVG_Layer_1__Group__2_0_Layer0_0_MEMBER_0_FILL">
<path fill="#FFFFFF" stroke="none" d="
M 23.85 7.35
Q 24 6.85 24 6.35 24 3.75 20.5 1.85 16.95 0 12 0 7 0 3.5 1.85 0 3.7 0 6.35 0 6.85 0.15 7.35 0.85 5 4.15 3.45 7.55 1.9 12 1.9 16.45 1.9 19.85 3.45 23.15 5 23.85 7.35 Z"/>
</g>

<g id="An_1F936_SVG_Layer_1__Group__1_2_0_Layer0_0_MEMBER_0_FILL">
<path fill="#FFFFFF" stroke="none" d="
M 23.85 7.35
Q 24 6.85 24 6.35 24 3.7 20.5 1.85 17 0 12 0 7.05 0 3.55 1.85 0 3.75 0 6.35 0 6.85 0.15 7.35 0.85 5 4.15 3.45 7.55 1.9 12 1.9 16.5 1.9 19.85 3.45 23.2 5 23.85 7.35 Z"/>
</g>

<g id="Layer0_0_MEMBER_17_MEMBER_1_MEMBER_0_FILL">
<path fill="#FAFAFA" fill-opacity="0.4980392156862745" stroke="none" d="
M 12 0
Q 7.05 0 3.55 1.85 0 3.75 0 6.35 0 9 3.55 10.9 7.05 12.75 12 12.75 17 12.75 20.5 10.9 24 9 24 6.35 24 3.7 20.5 1.85 17 0 12 0 Z"/>
</g>

<g id="Layer0_0_MEMBER_18_FILL">
<path fill="#757575" stroke="none" d="
M 31.6 84.5
L 31.95 82.55
Q 29.8 82.15 27.35 79.95 22.45 75.55 20.95 66.7
L 19 67.05
Q 20.65 76.8 26.15 81.6 28.9 84 31.6 84.5 Z"/>
</g>

<g id="Layer0_0_MEMBER_19_FILL">
<path fill="#757575" stroke="none" d="
M 96.3 84.5
Q 99.05 84 101.8 81.6 107.3 76.8 108.95 67.05
L 107 66.7
Q 105.55 75.55 100.75 79.9 98.3 82.1 95.95 82.55
L 96.3 84.5 Z"/>
</g>

<g id="Layer0_0_MEMBER_20_FILL">
<path fill="#BF360C" stroke="none" d="
M 64.05 12.55
L 63.1 12.55
Q 38.4 12.55 24.4 27.7 17.85 34.75 15.65 43.65 13.4 52.85 16.25 62.5 16.5 62.5 16.55 62.4 21.15 59.05 28 52.15 35.9 44 39.9 40.05 54.7 25.4 64.05 23.85
L 64.05 12.55 Z"/>
</g>

<g id="Layer0_0_MEMBER_21_FILL">
<path fill="#EEEEEE" stroke="none" d="
M 55.85 19.5
Q 50.35 15.65 46.85 16.95 43.4 18.25 42.25 25.1 41.05 32.3 39.25 33.45 36.85 35 29.7 34.35 23.1 33.75 21 36.15 19.2 38.2 20.05 43.05 21.1 48.8 20.5 50.8 19.9 52.7 14.8 55.9 10.15 58.8 10.1 62.55 10.1 65.05 12.95 67.7 16.15 70.75 16.8 72.9
L 17.25 74.95
Q 17.5 76.2 18.8 76.2 20.1 76.15 20.3 74.9 22.15 65.3 27.45 58 33.35 49.75 41.85 47.05 45.25 46 55.5 43.9 64.05 41.15 64.05 35.35
L 64.05 23.85
Q 62.05 23.85 55.85 19.5 Z"/>
</g>

<g id="Layer0_0_MEMBER_22_FILL">
<path fill="#BF360C" stroke="none" d="
M 50.2 23.1
Q 52.55 25.45 57.15 30.3 61.15 34.35 63.85 36.35
L 64.05 36.4
Q 65.7 30.75 64.4 25.35 63.1 20.15 59.3 16 51.05 7.05 36.6 7.05
L 36.05 7.05 36.05 13.4
Q 41.5 14.35 50.2 23.1 Z"/>
</g>

<g id="Layer0_0_MEMBER_23_FILL">
<path fill="#EEEEEE" stroke="none" d="
M 45.7 9.55
Q 43.75 8.8 40.65 10.95 37.2 13.4 36.05 13.4
L 36.05 19.9
Q 36.05 23.15 40.85 24.7 43.5 25.55 48.5 26.45 53.3 28 56.65 32.65 59.65 36.75 60.65 42.15 60.8 42.85 61.5 42.85 62.2 42.85 62.4 42.15
L 62.6 41
Q 62.95 39.8 64.8 38.1 66.4 36.6 66.4 35.2 66.35 33.1 63.75 31.45 60.85 29.65 60.55 28.6 60.2 27.4 60.8 24.2 61.25 21.5 60.25 20.35 59.05 19 55.35 19.3 51.35 19.7 50 18.8 48.95 18.15 48.3 14.1 47.65 10.25 45.7 9.55 Z"/>
</g>
</defs>

<g id="Layer_1">
<g transform="matrix( 0.562469482421875, 0, 0, 0.562469482421875, 0,0) ">
<use xlink:href="#Layer0_0_MEMBER_0_MEMBER_0_MEMBER_0_FILL"/>
</g>

<g transform="matrix( 0.562469482421875, 0, 0, 0.562469482421875, 0,0) ">
<use xlink:href="#Layer0_0_MEMBER_0_MEMBER_1_MEMBER_0_FILL"/>
</g>

<g transform="matrix( 0.5624847412109375, 0, 0, 0.5624847412109375, 0,0) ">
<use xlink:href="#Layer0_0_MEMBER_1_MEMBER_0_FILL"/>
</g>

<g transform="matrix( 0.5624847412109375, 0, 0, 0.5624847412109375, 0,0) ">
<use xlink:href="#Layer0_0_MEMBER_2_MEMBER_0_FILL"/>
</g>

<g transform="matrix( 0.5624847412109375, 0, 0, 0.5624847412109375, 0,0) ">
<use xlink:href="#Layer0_0_MEMBER_3_MEMBER_0_FILL"/>
</g>

<g transform="matrix( 0.5624847412109375, 0, 0, 0.5624847412109375, 0,0) ">
<use xlink:href="#Layer0_0_MEMBER_4_MEMBER_0_FILL"/>
</g>

<g transform="matrix( 0.5624847412109375, 0, 0, 0.5624847412109375, 0,0) ">
<use xlink:href="#Layer0_0_MEMBER_5_MEMBER_0_FILL"/>
</g>

<g transform="matrix( 0.5624847412109375, 0, 0, 0.5624847412109375, 0,0) ">
<use xlink:href="#Layer0_0_MEMBER_6_MEMBER_0_FILL"/>
</g>

<g transform="matrix( 0.5624847412109375, 0, 0, 0.5624847412109375, 0,0) ">
<use xlink:href="#Layer0_0_MEMBER_7_MEMBER_0_FILL"/>
</g>

<g transform="matrix( 0.5624847412109375, 0, 0, 0.5624847412109375, 0,0) ">
<use xlink:href="#Layer0_0_MEMBER_8_MEMBER_0_FILL"/>
</g>

<g transform="matrix( 0.5624847412109375, 0, 0, 0.5624847412109375, 0,0) ">
<use xlink:href="#Layer0_0_MEMBER_9_MEMBER_0_FILL"/>
</g>

<g transform="matrix( 0.5624847412109375, 0, 0, 0.5624847412109375, 0,0) ">
<use xlink:href="#Layer0_0_MEMBER_10_MEMBER_0_FILL"/>
</g>

<g transform="matrix( 0.5625, 0, 0, 0.5625, 27.1,28.15) ">
<use xlink:href="#Layer0_0_MEMBER_11_FILL"/>
</g>

<g transform="matrix( 0.5625, 0, 0, 0.5625, 26.2,33.2) ">
<use xlink:href="#Layer0_0_MEMBER_12_FILL"/>
</g>

<g transform="matrix( 0.562469482421875, 0, 0, 0.562469482421875, 21.65,51.3) ">
<use xlink:href="#Layer0_0_MEMBER_13_MEMBER_0_FILL"/>
</g>

<g transform="matrix( 0.562469482421875, 0, 0, 0.562469482421875, 23.1,46.35) ">
<use xlink:href="#Layer0_0_MEMBER_13_MEMBER_1_FILL"/>
</g>

<g transform="matrix( 1, 0, 0, 1, 0,0) ">
<use xlink:href="#Layer0_0_MEMBER_13_MEMBER_2_MEMBER_0_FILL"/>
</g>

<g transform="matrix( 0.562469482421875, 0, 0, 0.562469482421875, 41.75,46.35) ">
<use xlink:href="#Layer0_0_MEMBER_13_MEMBER_2_MEMBER_1_FILL"/>
</g>

<g transform="matrix( 0.5625, 0, 0, 0.5625, 0,0) ">
<use xlink:href="#Layer0_0_MEMBER_14_FILL"/>
</g>

<g transform="matrix( 0.5625, 0, 0, 0.5625, 0,0) ">
<use xlink:href="#Layer0_0_MEMBER_15_FILL"/>
</g>

<g transform="matrix( 0.5625, 0, 0, 0.5625, 17.8,43.9) ">
<use xlink:href="#Layer0_0_MEMBER_16_MEMBER_0_MEMBER_0_FILL"/>
</g>

<g transform="matrix( 0.5625, 0, 0, 0.5625, 17.8,42.85) ">
<g id="Camada_1">
<g transform="matrix( 1, 0, 0, 1, 0,0) ">
<use filter="url(#Filter_1)" xlink:href="#An_1F936_SVG_Layer_1__Group__2_0_Layer0_0_MEMBER_0_FILL"/>
</g>
</g>
</g>

<g transform="matrix( 0.5625, 0, 0, 0.5625, 40.65,42.85) ">
<g transform="matrix( 1, 0, 0, 1, 0,0) ">
<use filter="url(#Filter_1)" xlink:href="#An_1F936_SVG_Layer_1__Group__1_2_0_Layer0_0_MEMBER_0_FILL"/>
</g>
</g>

<g transform="matrix( 0.5625, 0, 0, 0.5625, 40.65,43.9) ">
<use xlink:href="#Layer0_0_MEMBER_17_MEMBER_1_MEMBER_0_FILL"/>
</g>

<g transform="matrix( 0.5625, 0, 0, 0.5625, 0,0) ">
<use xlink:href="#Layer0_0_MEMBER_18_FILL"/>
</g>

<g transform="matrix( 0.5625, 0, 0, 0.5625, 0,0) ">
<use xlink:href="#Layer0_0_MEMBER_19_FILL"/>
</g>

<g transform="matrix( 0.5625, 0, 0, 0.5625, 0,0) ">
<use xlink:href="#Layer0_0_MEMBER_20_FILL"/>
</g>

<g transform="matrix( 0.5625, 0, 0, 0.5625, 0,0) ">
<use xlink:href="#Layer0_0_MEMBER_21_FILL"/>
</g>

<g transform="matrix( 1, 0, 0, 1, 0,0) ">
<use xlink:href="#Layer0_0_MEMBER_22_FILL"/>
</g>

<g transform="matrix( 1, 0, 0, 1, 0,0) ">
<use xlink:href="#Layer0_0_MEMBER_23_FILL"/>
</g>
</g>
</svg>
